svgs/regular/basket-shopping.svg

<svg xmlns="http://www.w3.org/2000/svg" viewBox="0 0 576 512"><!--! Font Awesome Pro 6.3.0 by @fontawesome - https://fontawesome.com License - https://fontawesome.com/license (Commercial License) Copyright 2023 Fonticons, Inc. --><path d="M243.1 2.7c11.8 6.1 16.3 20.6 10.2 32.4L171.7 192H404.3L322.7 35.1c-6.1-11.8-1.5-26.3 10.2-32.4s26.2-1.5 32.4 10.2L458.4 192h36.1H544h8c13.3 0 24 10.7 24 24s-10.7 24-24 24H532L476.1 463.5C469 492 443.4 512 414 512H162c-29.4 0-55-20-62.1-48.5L44 240H24c-13.3 0-24-10.7-24-24s10.7-24 24-24h8H81.5h36.1L210.7 12.9c6.1-11.8 20.6-16.3 32.4-10.2zM93.5 240l53 211.9c1.8 7.1 8.2 12.1 15.5 12.1H414c7.3 0 13.7-5 15.5-12.1l53-211.9H93.5zM224 312v80c0 13.3-10.7 24-24 24s-24-10.7-24-24V312c0-13.3 10.7-24 24-24s24 10.7 24 24zm64-24c13.3 0 24 10.7 24 24v80c0 13.3-10.7 24-24 24s-24-10.7-24-24V312c0-13.3 10.7-24 24-24zm112 24v80c0 13.3-10.7 24-24 24s-24-10.7-24-24V312c0-13.3 10.7-24 24-24s24 10.7 24 24z"/></svg>

<svg xmlns="http://www.w3.org/2000/svg" viewBox="0 0 576 512"><!--! Font Awesome Pro 6.2.0 by @fontawesome - https://fontawesome.com License - https://fontawesome.com/license (Commercial License) Copyright 2022 Fonticons, Inc. --><path d="M224 392C224 405.3 213.3 416 200 416C186.7 416 176 405.3 176 392V312C176 298.7 186.7 288 200 288C213.3 288 224 298.7 224 312V392zM288 288C301.3 288 312 298.7 312 312V392C312 405.3 301.3 416 288 416C274.7 416 264 405.3 264 392V312C264 298.7 274.7 288 288 288zM400 392C400 405.3 389.3 416 376 416C362.7 416 352 405.3 352 392V312C352 298.7 362.7 288 376 288C389.3 288 400 298.7 400 312V392zM243.1 2.708C254.8 8.823 259.4 23.31 253.3 35.07L171.7 192H404.3L322.7 35.07C316.6 23.31 321.2 8.823 332.9 2.708C344.7-3.407 359.2 1.169 365.3 12.93L458.4 192H552C565.3 192 576 202.7 576 216C576 229.3 565.3 240 552 240H532L476.1 463.5C468.1 492 443.4 512 414 512H161.1C132.6 512 107 492 99.88 463.5L44 240H24C10.75 240 0 229.3 0 216C0 202.7 10.75 192 24 192H117.6L210.7 12.93C216.8 1.169 231.3-3.407 243.1 2.708H243.1zM146.4 451.9C148.2 459 154.6 464 161.1 464H414C421.4 464 427.8 459 429.6 451.9L482.5 240H93.48L146.4 451.9z"/></svg>
